X:132
T: Als ich dich zum ersten Mal erblickte (2-13), S. 28
N: K1106
O: Luxemburg
S: KINTZELE, Guillaume: An der Ucht, Bd. 2, Luxemburg 1927]
N: in der Quelle mit einer 2. Stimme versehen
R: Werbung um Treue]
M: 4/4
L: 1/16
K: D
F3E | D6D2D2F2B3A | A2G2E8
G3F | E6d2c2B2A2G2 | F8z4
d3c | B6c2e2d2c2B2 | A2F2A4z2
AAB2A2 | c6B2A2A2G2E2 | D8z4
d3c | B6c2e2d2c2B2 | A2F2A4z2
AAB2A2 | c6B2A2A2G2E2 | D8z4

@@@ Tune index: 8186
